svg/N_Arrows/15.svg

<svg xmlns="http://www.w3.org/2000/svg" viewBox="0 0 744.09 1052.36" xmlns:xlink="http://www.w3.org/1999/xlink"><g transform="matrix(1.57104 0 0 1.57995-411.41-275.33)"><g><g transform="matrix(1.49941 0 0 1.41792-191.99-156.61)"><path d="M403.17712 540.59363A13.384521 13.384521 0 1 1 376.40808 540.59363 13.384521 13.384521 0 1 1 403.17712 540.59363z" transform="matrix(1.19569 0 0 1.19098-72.35-122.11)" opacity=".97" fill="none" stroke="#000" stroke-linecap="square" stroke-width="1.92"/><g><g><path d="m393.95 506.12v15.733h14.977c-1.116-8.452-2.965-16.298-14.977-15.733z" fill="none" fill-rule="evenodd" stroke="#000" stroke-width="1.023" id="3"/><path d="m393.62 506.22v15.611h-14.981c1.117-8.386 2.966-16.17 14.981-15.611z" fill-rule="evenodd" stroke="#000" stroke-width="1.019" id="4"/></g><g transform="matrix(-1 0 0-1 787.62 1044.09)"><use xlink:href="#3"/><use xlink:href="#4"/></g></g></g><g transform="matrix(4.0061 0 0 4.27757-1024.35-1738.59)"><path d="m355.06 536.94v-20.17l-7.442 10.621 5.442-1.578v11.542l2-.417z" fill="none" fill-rule="evenodd" stroke="#000" stroke-width=".5" id="0"/><path d="m355.59 536.74l.152-19.17 5.628 9.169-4.065-.629v11.09l-1.715-.459z" fill-rule="evenodd" stroke="#000" stroke-width=".884" id="1"/></g><g transform="matrix(0-4.0061-4.27757 0 2719.64 2005.77)"><use xlink:href="#0"/><use xlink:href="#1"/></g></g><g transform="matrix(1.90355 0 0 2.12245-260-661.65)" fill-rule="evenodd"><path d="m341 597.05v20.874h4.911v-20.874h-4.911"/><path d="m345.5 597.45v20h5v-20h-5z" fill="none" stroke="#000"/></g></g><g font-family="Arial Black" font-size="56"><flowRoot transform="translate(72 348.98)"><flowRegion><path d="m321.43 270.93h68.57v74.28h-68.57z" id="2"/></flowRegion><flowPara>E</flowPara></flowRoot><flowRoot transform="translate(-129.17 142.57)"><flowRegion><use xlink:href="#2"/></flowRegion><flowPara>N</flowPara></flowRoot></g></svg>

<?xml version="1.0" encoding="UTF-8" standalone="no"?>
<!-- Created with Inkscape (http://www.inkscape.org/) -->
<svg
   xmlns:dc="http://purl.org/dc/elements/1.1/"
   xmlns:cc="http://web.resource.org/cc/"
   xmlns:rdf="http://www.w3.org/1999/02/22-rdf-syntax-ns#"
   xmlns:svg="http://www.w3.org/2000/svg"
   xmlns="http://www.w3.org/2000/svg"
   xmlns:sodipodi="http://sodipodi.sourceforge.net/DTD/sodipodi-0.dtd"
   xmlns:inkscape="http://www.inkscape.org/namespaces/inkscape"
   width="744.09448819"
   height="1052.3622047"
   id="svg2"
   sodipodi:version="0.32"
   inkscape:version="0.44.1"
   sodipodi:docbase="F:\QGIS_N_ARROWS\NORD_EST"
   sodipodi:docname="FINALE.svg"
   inkscape:export-filename="F:\QGIS_N_ARROWS\NORD_EST\FINALE.png"
   inkscape:export-xdpi="300"
   inkscape:export-ydpi="300">
  <defs
     id="defs4" />
  <sodipodi:namedview
     id="base"
     pagecolor="#ffffff"
     bordercolor="#666666"
     borderopacity="1.0"
     inkscape:pageopacity="0.0"
     inkscape:pageshadow="2"
     inkscape:zoom="0.49497475"
     inkscape:cx="372.32143"
     inkscape:cy="450.16349"
     inkscape:document-units="px"
     inkscape:current-layer="layer1"
     showgrid="true"
     inkscape:window-width="1280"
     inkscape:window-height="744"
     inkscape:window-x="-4"
     inkscape:window-y="-4" />
  <metadata
     id="metadata7">
    <rdf:RDF>
      <cc:Work
         rdf:about="">
        <dc:format>image/svg+xml</dc:format>
        <dc:type
           rdf:resource="http://purl.org/dc/dcmitype/StillImage" />
      </cc:Work>
    </rdf:RDF>
  </metadata>
  <g
     inkscape:label="Livello 1"
     inkscape:groupmode="layer"
     id="layer1">
    <g
       id="g8833">
      <g
         transform="matrix(1.571043,0,0,1.579954,-411.4071,-275.3294)"
         id="g8708">
        <g
           id="g7798">
          <g
             transform="matrix(1.499409,0,0,1.417922,-191.9873,-156.6127)"
             id="g6877">
            <path
               sodipodi:type="arc"
               style="opacity:0.97000002;fill:none;fill-opacity:1;stroke:black;stroke-width:1.92016244;stroke-linecap:square;stroke-linejoin:miter;stroke-miterlimit:4;stroke-dasharray:none;stroke-opacity:1"
               id="path4200"
               sodipodi:cx="389.7926"
               sodipodi:cy="540.59363"
               sodipodi:rx="13.384521"
               sodipodi:ry="13.384521"
               d="M 403.17712 540.59363 A 13.384521 13.384521 0 1 1  376.40808,540.59363 A 13.384521 13.384521 0 1 1  403.17712 540.59363 z"
               transform="matrix(1.195693,0,0,1.190976,-72.34677,-122.1065)" />
            <g
               id="g4214">
              <g
                 id="g4204">
                <path
                   style="fill:none;fill-rule:evenodd;stroke:black;stroke-width:1.02334249px;stroke-linecap:butt;stroke-linejoin:miter;stroke-opacity:1"
                   d="M 393.94568,506.11758 L 393.94568,521.85051 L 408.92234,521.85051 C 407.80587,513.39838 405.95738,505.55212 393.94568,506.11758 z "
                   id="path4198"
                   sodipodi:nodetypes="cccc" />
                <path
                   style="fill:black;fill-opacity:1;fill-rule:evenodd;stroke:black;stroke-width:1.01949167px;stroke-linecap:butt;stroke-linejoin:miter;stroke-opacity:1"
                   d="M 393.62106,506.22294 L 393.62106,521.83367 L 378.64056,521.83367 C 379.75731,513.44719 381.60628,505.66187 393.62106,506.22294 z "
                   id="path4202"
                   sodipodi:nodetypes="cccc" />
              </g>
              <g
                 transform="matrix(-1,0,0,-1,787.6156,1044.094)"
                 id="g4208">
                <path
                   style="fill:none;fill-rule:evenodd;stroke:black;stroke-width:1.02334249px;stroke-linecap:butt;stroke-linejoin:miter;stroke-opacity:1"
                   d="M 393.94568,506.11758 L 393.94568,521.85051 L 408.92234,521.85051 C 407.80587,513.39838 405.95738,505.55212 393.94568,506.11758 z "
                   id="path4210"
                   sodipodi:nodetypes="cccc" />
                <path
                   style="fill:black;fill-opacity:1;fill-rule:evenodd;stroke:black;stroke-width:1.01949167px;stroke-linecap:butt;stroke-linejoin:miter;stroke-opacity:1"
                   d="M 393.62106,506.22294 L 393.62106,521.83367 L 378.64056,521.83367 C 379.75731,513.44719 381.60628,505.66187 393.62106,506.22294 z "
                   id="path4212"
                   sodipodi:nodetypes="cccc" />
              </g>
            </g>
          </g>
          <g
             id="g7782"
             transform="matrix(4.00614,0,0,4.277573,-1024.345,-1738.586)">
            <path
               sodipodi:nodetypes="cccccc"
               style="fill:none;fill-rule:evenodd;stroke:black;stroke-width:0.5;stroke-linecap:butt;stroke-linejoin:miter;stroke-miterlimit:4;stroke-dasharray:none;stroke-opacity:1"
               d="M 355.06313,536.94472 L 355.06313,516.77774 L 347.62119,527.39853 L 353.06313,525.82017 L 353.06313,537.36218 L 355.06313,536.94472 z "
               id="path6889" />
            <path
               sodipodi:nodetypes="cccccc"
               style="fill:black;fill-opacity:1;fill-rule:evenodd;stroke:black;stroke-width:0.88372129px;stroke-linecap:butt;stroke-linejoin:miter;stroke-opacity:1"
               d="M 355.58824,536.74494 L 355.74052,517.57703 L 361.36875,526.7465 L 357.30349,526.11765 L 357.30349,537.20415 L 355.58824,536.74494 z "
               id="path6891" />
          </g>
          <g
             id="g7786"
             transform="matrix(0,-4.00614,-4.277573,0,2719.64,2005.773)">
            <path
               sodipodi:nodetypes="cccccc"
               style="fill:none;fill-rule:evenodd;stroke:black;stroke-width:0.5;stroke-linecap:butt;stroke-linejoin:miter;stroke-miterlimit:4;stroke-dasharray:none;stroke-opacity:1"
               d="M 355.06313,536.94472 L 355.06313,516.77774 L 347.62119,527.39853 L 353.06313,525.82017 L 353.06313,537.36218 L 355.06313,536.94472 z "
               id="path7788" />
            <path
               sodipodi:nodetypes="cccccc"
               style="fill:black;fill-opacity:1;fill-rule:evenodd;stroke:black;stroke-width:0.88372129px;stroke-linecap:butt;stroke-linejoin:miter;stroke-opacity:1"
               d="M 355.58824,536.74494 L 355.74052,517.57703 L 361.36875,526.7465 L 357.30349,526.11765 L 357.30349,537.20415 L 355.58824,536.74494 z "
               id="path7790" />
          </g>
        </g>
        <g
           id="g8704"
           transform="matrix(1.903547,0,0,2.122449,-260.0025,-661.6547)">
          <path
             id="path7815"
             d="M 341,597.05034 L 341,617.92407 L 345.91071,617.92407 L 345.91071,597.05034 L 341,597.05034 z "
             style="fill:black;fill-opacity:1;fill-rule:evenodd;stroke:black;stroke-width:0;stroke-linecap:butt;stroke-linejoin:miter;stroke-miterlimit:4;stroke-dasharray:none;stroke-opacity:1" />
          <path
             id="path7817"
             d="M 345.5,597.45147 L 345.5,617.45147 L 350.5,617.45147 L 350.5,597.45147 L 345.5,597.45147 z "
             style="fill:none;fill-rule:evenodd;stroke:black;stroke-width:1px;stroke-linecap:butt;stroke-linejoin:miter;stroke-opacity:1" />
        </g>
      </g>
      <flowRoot
         transform="translate(72.00186,348.9784)"
         style="font-size:56px;font-family:Arial Black"
         id="flowRoot2798"
         xml:space="preserve"><flowRegion
           id="flowRegion2800"><rect
             style="font-size:56px;font-family:Arial Black"
             y="270.93362"
             x="321.42856"
             height="74.285713"
             width="68.571426"
             id="rect2802" /></flowRegion><flowPara
           id="flowPara2804">E</flowPara></flowRoot>      <flowRoot
         transform="translate(-129.1674,142.5693)"
         style="font-size:56px;font-family:Arial Black"
         id="flowRoot2790"
         xml:space="preserve"><flowRegion
           id="flowRegion2792"><rect
             style="font-size:56px;font-family:Arial Black"
             y="270.93362"
             x="321.42856"
             height="74.285713"
             width="68.571426"
             id="rect2794" /></flowRegion><flowPara
           id="flowPara2796">N</flowPara></flowRoot>    </g>
  </g>
</svg>
